X:1
T:Title
%%score { ( 1 3 ) | ( 2 4 ) }
L:1/8
M:4/4
K:Eb
V:1 treble nm="Grand Piano"
V:3 treble 
V:2 bass 
V:4 bass 
V:1
 z4 z2[Q:1/4=96] [EG][FA] | [GB]2 [Gc]2 [GB][GB][GB][EG] | [FA]2 [EG]2 [DF]2 [DF][EG] | %3
 [FA]2 [GB]2 [Ad][Ac][AB][Ac] | [GB]6 [B,EG][B,FA] | [EGB]2 [Ge]2 [Ge][GB][G=A][GB] | d2 c2 B2 A2 | %7
 [EG][EB][EB][Ec] [EG]2 [DF]2 |[M:3/4] E6 |[M:1/4] ed |[M:4/4] dc c4 ec | [Ac][GB] [GB]4 [FA][EG] | %12
 [DF][EG][FA][GB] [Ad]2 [Ac]2 |[M:3/4] [GB][Ac] [GB][FA] [EG]2 |[M:1/4] ed |[M:4/4] dc c4 ec | %16
 [Ac][GB] [GB]4 EF | G B2 c [EG]2 [DF]2 |[M:3/4] E6 |] %19
V:2
 z4 z2 [E,B,][E,B,] | [E,E]2 [E,E]2 [E,E][E,E][E,E][E,B,] | %2
 [D,B,]2 [E,B,]2 [B,,B,]2 [B,,B,][B,,B,] | [B,,B,]2 [B,,B,]2 [B,,B,][B,,B,][B,,B,][B,,B,] | %4
 z EDC B,2 E,E, | E,2 [E,B,]2 [E,B,][E,_D][E,C][E,D] | [A,CA]2 [A,EA]2[K:bass] [G,C=E]2 [F,CF]2 | %7
 [B,,B,][B,,G,][B,,G,][B,,A,] [B,,B,]2 [B,,A,]2 |[M:3/4] [E,G,]6 |[M:1/4] B,[K:treble]E | %10
[M:4/4] [A,EA][A,EA] [A,EA]4 [A,CA][A,EA] | [E,E][E,E] [E,E]4 [D,B,][E,B,] | %12
 [B,,B,][B,,B,][B,,B,][B,,B,] [B,,B,]2 [B,,B,]2 |[M:3/4] [B,,B,][B,,B,] [C,B,][D,B,] [E,B,]2 | %14
[M:1/4] B,[K:treble]E |[M:4/4] [A,EA][A,EA] [A,EA]4 [A,CA][A,EA] | %16
 [E,E][E,E] [E,E]4 [E,G,][E,A,E] | [E,B,E] [E,G,E]2 [E,A,E] [B,,B,]2 [B,,A,]2 |[M:3/4] [E,G,]6 |] %19
V:3
 x8 | x8 | x8 | x8 | .B,2 z2 z4 | x8 | x8 | x8 |[M:3/4] x6 |[M:1/4] G2 |[M:4/4] x8 | x8 | x8 | %13
[M:3/4] x6 |[M:1/4] G2 |[M:4/4] x8 | x8 | x8 |[M:3/4] x6 |] %19
V:4
 x8 | x8 | x8 | x8 | E,6 z2 | x8 | x4[K:bass] x4 | x8 |[M:3/4] x6 |[M:1/4] E,2[K:treble] | %10
[M:4/4] x8 | x8 | x8 |[M:3/4] x6 |[M:1/4] E,2[K:treble] |[M:4/4] x8 | x8 | x8 |[M:3/4] x6 |] %19

